X:104
T:Bro Aber
M:3/4
L:1/4
Q:70
C:J. Haydn Phillips 1917 - 85
R:Hymn
K:G
D | B>B c/B/ | B A G | G F E | D2 D |
D>D E/F/ | G A B | B A E | A2 D | B>B c
/B/ | B A G | G A B | c2 c | B>A G/F/ |
E F A | G2 F | E2 D | A>F G/A/ | B2 G
| c>B A/G/ | F2 D | E>E F/F/ | G A B | A/E/ G F |
G2 ||
